img/icons/sun.svg

<svg width="22" height="22" viewBox="0 0 22 22" fill="none" xmlns="http://www.w3.org/2000/svg">
  <path d="M14.7146 7.10055C13.7375 6.11113 12.358 5.47092 10.8635 5.47092C9.36907 5.47092 7.98957 6.08203 7.01243 7.10055C6.03528 8.08996 5.40302 9.48679 5.40302 11C5.40302 12.5132 6.03528 13.9101 7.01243 14.8995C7.98957 15.8889 9.36907 16.5291 10.8635 16.5291C12.358 16.5291 13.7375 15.918 14.7146 14.8995C15.6918 13.9101 16.324 12.5132 16.324 11C16.324 9.48679 15.7205 8.08996 14.7146 7.10055ZM13.68 13.8519C12.9615 14.5794 11.9556 15.0159 10.8635 15.0159C9.77142 15.0159 8.76554 14.5794 8.04705 13.8519C7.32856 13.1243 6.89747 12.1058 6.89747 11C6.89747 9.89419 7.32856 8.87568 8.04705 8.14817C8.76554 7.42065 9.77142 6.98415 10.8635 6.98415C11.9556 6.98415 12.9615 7.42065 13.68 8.14817C14.3985 8.87568 14.8296 9.89419 14.8296 11C14.8296 12.1058 14.3985 13.1243 13.68 13.8519Z" fill="white"/>
  <path d="M20.9798 10.2434H18.7669C18.3645 10.2434 18.0196 10.5926 18.0196 11C18.0196 11.4074 18.3645 11.7566 18.7669 11.7566H20.9798C21.3822 11.7566 21.727 11.4074 21.727 11C21.727 10.5926 21.3822 10.2434 20.9798 10.2434Z" fill="white"/>
  <path d="M10.8635 18.246C10.4612 18.246 10.1163 18.5952 10.1163 19.0026V21.2434C10.1163 21.6508 10.4612 22 10.8635 22C11.2659 22 11.6107 21.6508 11.6107 21.2434V19.0026C11.6107 18.5952 11.2659 18.246 10.8635 18.246Z" fill="white"/>
  <path d="M18.537 17.7222L16.9563 16.1216C16.6977 15.8306 16.2091 15.8306 15.9217 16.1216C15.6343 16.4126 15.6343 16.8782 15.9217 17.1693L17.5024 18.7698C17.7898 19.0608 18.2496 19.0608 18.537 18.7698C18.8244 18.4788 18.8244 18.0132 18.537 17.7222Z" fill="white"/>
  <path d="M10.8635 0C10.4612 0 10.1163 0.349205 10.1163 0.756611V2.99735C10.1163 3.40475 10.4612 3.75396 10.8635 3.75396C11.2659 3.75396 11.6107 3.40475 11.6107 2.99735V0.756611C11.6107 0.349205 11.2659 0 10.8635 0Z" fill="white"/>
  <path d="M18.5657 3.23018C18.2783 2.93918 17.8185 2.93918 17.5311 3.23018L15.9504 4.8307C15.663 5.12171 15.663 5.58732 15.9504 5.87832C16.2091 6.16932 16.6976 6.16932 16.985 5.87832L18.5657 4.2778C18.8531 3.98679 18.8531 3.52118 18.5657 3.23018Z" fill="white"/>
  <path d="M2.96017 10.2434H0.747226C0.344874 10.2434 0 10.5926 0 11C0 11.4074 0.316134 11.7566 0.747226 11.7566H2.96017C3.36252 11.7566 3.70739 11.4074 3.70739 11C3.70739 10.5926 3.36252 10.2434 2.96017 10.2434Z" fill="white"/>
  <path d="M5.77664 16.1216C5.51798 15.8306 5.02941 15.8306 4.74202 16.1216L3.16134 17.7222C2.87395 18.0132 2.87395 18.4788 3.16134 18.7698C3.44874 19.0608 3.90857 19.0608 4.19597 18.7698L5.77664 17.1693C6.06403 16.8782 6.06403 16.4126 5.77664 16.1216Z" fill="white"/>
  <path d="M5.77664 4.8307L4.19597 3.23018C3.90857 2.93918 3.44874 2.93918 3.16134 3.23018C2.87395 3.52118 2.87395 3.98679 3.16134 4.2778L4.74202 5.87832C5.02941 6.16932 5.48924 6.16932 5.77664 5.87832C6.06403 5.58732 6.06403 5.12171 5.77664 4.8307Z" fill="white"/>
</svg>

<svg width="22" height="22" fill="none" xmlns="http://www.w3.org/2000/svg"><path d="M14.715 7.1c-.977-.989-2.357-1.63-3.851-1.63A5.328 5.328 0 007.011 7.1 5.583 5.583 0 005.403 11c0 1.513.632 2.91 1.61 3.9.977.989 2.356 1.63 3.85 1.63a5.327 5.327 0 003.852-1.63 5.582 5.582 0 001.609-3.9c0-1.513-.604-2.91-1.61-3.9zm-1.035 6.752a3.95 3.95 0 01-2.816 1.164 3.95 3.95 0 01-2.817-1.164A4.052 4.052 0 016.897 11c0-1.106.432-2.124 1.15-2.852a3.95 3.95 0 012.816-1.164 3.95 3.95 0 012.817 1.164A4.051 4.051 0 0114.83 11a4.052 4.052 0 01-1.15 2.852zm7.3-3.609h-2.213a.766.766 0 00-.747.757c0 .407.345.757.747.757h2.213c.402 0 .747-.35.747-.757a.766.766 0 00-.747-.757zm-10.116 8.003a.766.766 0 00-.748.757v2.24c0 .408.345.757.748.757.402 0 .747-.35.747-.757v-2.24a.766.766 0 00-.748-.757zm7.673-.524l-1.58-1.6c-.26-.291-.748-.291-1.035 0a.744.744 0 000 1.047l1.58 1.6a.722.722 0 001.035 0 .744.744 0 000-1.047zM10.864 0a.766.766 0 00-.748.757v2.24c0 .408.345.757.748.757.402 0 .747-.35.747-.757V.757A.766.766 0 0010.863 0zm7.702 3.23a.722.722 0 00-1.035 0l-1.58 1.6a.744.744 0 000 1.048c.258.291.747.291 1.034 0l1.58-1.6a.744.744 0 000-1.048zM2.96 10.243H.747A.766.766 0 000 11c0 .407.316.757.747.757H2.96c.403 0 .747-.35.747-.757a.766.766 0 00-.747-.757zm2.817 5.879c-.259-.291-.748-.291-1.035 0l-1.58 1.6a.744.744 0 000 1.048.722.722 0 001.034 0l1.58-1.6a.744.744 0 000-1.048zm0-11.292l-1.581-1.6a.722.722 0 00-1.035 0 .744.744 0 000 1.048l1.581 1.6a.722.722 0 001.035 0 .744.744 0 000-1.047z" fill="#fff"/></svg>
